app/img/www/light.svg

<svg width="18" height="18" xmlns="http://www.w3.org/2000/svg"><g fill="none" fill-rule="evenodd"><path opacity=".601" d="M0 0h16v16H0z"/><path d="M9 17A8 8 0 1 1 9 1a8 8 0 0 1 0 16zM9 3a6 6 0 1 0 0 12A6 6 0 0 0 9 3zm2.94 9.607l-.176.102-.508.309-.299.219c-.223.106-.455.19-.696.261v-.294l-.085-.679s-.042-.391-.106-.494a.88.88 0 0 0-.36-.309c-.148-.062-.254-.062-.339-.165-.085-.103-.148-.288-.254-.453-.106-.165-.233-.33-.233-.412v-.927l.106-.782.233-.165.275-.309.192-.062.656.123h.466l.191.391.444.35.275.432.36.123h.402l.275.329.169.35.064.247v.412l-.044.243c-.268.443-.608.83-1.008 1.16zm-1.636-7.105l-.466.247-.169.474-.276.247h-.91l-.424.165-.021.329-.169.268-.043.288.085.247.106.247s.254.288 0 .494c0 0-.318 0-.381-.103-.064-.102-.53-.391-.614-.473-.085-.082-.36-.165-.36-.165l-.339-.123-.318-.021.021-.432-.021-.371-.127-.268-.36-.268-.021-.288.044-.16a4.794 4.794 0 0 1 3.344-1.343c.736 0 1.425.177 2.047.468l-.014.109-.614.432z" fill="#8DA8B8"/></g></svg>

<?xml version="1.0" encoding="UTF-8" standalone="no"?>
<svg width="18px" height="18px" viewBox="0 0 18 18" version="1.1" xmlns="http://www.w3.org/2000/svg" xmlns:xlink="http://www.w3.org/1999/xlink">
    <!-- Generator: Sketch 48.2 (47327) - http://www.bohemiancoding.com/sketch -->
    <title>Icn Special / WWW / Light</title>
    <desc>Created with Sketch.</desc>
    <defs></defs>
    <g id="Symbols" stroke="none" stroke-width="1" fill="none" fill-rule="evenodd">
        <g id="Icn-Special-/-WWW-/-Light">
            <rect id="ico-placeholder" opacity="0.601096082" x="0" y="0" width="16" height="16"></rect>
            <path d="M9,17 C4.582,17 1,13.418 1,9 C1,4.582 4.582,1 9,1 C13.418,1 17,4.582 17,9 C17,13.418 13.418,17 9,17 L9,17 Z M9,3 C5.686,3 3,5.686 3,9 C3,12.314 5.686,15 9,15 C12.314,15 15,12.314 15,9 C15,5.686 12.314,3 9,3 L9,3 Z M11.94,12.607 L11.764,12.709 L11.256,13.018 L10.957,13.237 C10.734,13.343 10.502,13.427 10.261,13.498 L10.261,13.204 L10.176,12.525 C10.176,12.525 10.134,12.134 10.07,12.031 C10.007,11.928 9.858,11.784 9.71,11.722 C9.562,11.66 9.456,11.66 9.371,11.557 C9.286,11.454 9.223,11.269 9.117,11.104 C9.011,10.939 8.884,10.774 8.884,10.692 L8.884,9.765 L8.99,8.983 L9.223,8.818 L9.498,8.509 L9.69,8.447 L10.346,8.57 L10.812,8.57 L11.003,8.961 L11.447,9.311 L11.722,9.743 L12.082,9.866 L12.484,9.866 L12.759,10.195 L12.928,10.545 L12.992,10.792 L12.992,11.204 L12.948,11.447 C12.68,11.89 12.34,12.277 11.94,12.607 L11.94,12.607 Z M10.304,5.502 L9.838,5.749 L9.669,6.223 L9.393,6.47 L8.483,6.47 L8.059,6.635 L8.038,6.964 L7.869,7.232 L7.826,7.52 L7.911,7.767 L8.017,8.014 C8.017,8.014 8.271,8.302 8.017,8.508 C8.017,8.508 7.699,8.508 7.636,8.405 C7.572,8.303 7.106,8.014 7.022,7.932 C6.937,7.85 6.662,7.767 6.662,7.767 L6.323,7.644 L6.005,7.623 L6.026,7.191 L6.005,6.82 L5.878,6.552 L5.518,6.284 L5.497,5.996 L5.541,5.836 C6.399,5.006 7.58,4.493 8.885,4.493 C9.621,4.493 10.31,4.67 10.932,4.961 L10.918,5.07 L10.304,5.502 L10.304,5.502 Z" id="Shape" fill="#8DA8B8"></path>
        </g>
    </g>
</svg>
